X:1
T:Title
%%score { ( 1 3 4 ) | 2 }
L:1/8
Q:1/4=81
M:6/8
K:Ab
V:1 treble nm="Grand Piano"
V:3 treble 
V:4 treble 
V:2 treble 
V:1
 A2 A/A/ c2 [EA] | [DF]2 [FA] [FA]3 | A2 A c>BA | [GB]2 [Ac] [GB]3 | [GB]2 [Ac] [Bd]>[Ac][GB] | %5
w: J.~H.~Kurzenknabe * * * *|||||
 [Ac]2 [A=d] [Ge]3 | [GB]2 [Ac] [Bd]>[Ac][GB] | [Ac]2 [A=d] [Ge]3 | e2 f e>cA | [Ac]2 B A3 | .c6 | %11
w: ||||||
 A6 | .B6 | z2 A e3 | .c6 | A3 A3 | [FB]>[Fc][Fd] [Ac]2 B | A6 |] %18
w: |||||||
V:2
 [A,CE]2 [A,CE]/[A,CE]/ [A,EA]2[K:bass] C, | D,2 [D,D] [D,D]3 | %2
 [A,CE]2[K:treble] [A,CE] [A,EA]>[K:bass][A,DE][A,CE] | [E,E]2 [E,E] [E,E]3 | %4
 [E,E]2 [E,E] [E,E]>[E,E][E,E] | [A,E]2 [F,B,] [E,B,]3 | [E,E]2 [E,E] [E,E]>[E,E][E,E] | %7
 [A,E]2 [F,B,] [E,B,]3 | [A,CA]2 [A,DA] [A,CA]>[A,EA][A,C] | [E,E]2 [E,DE][K:treble] [A,CE]3 | %10
 [A,EA]>[A,E][A,E] [A,E]2 [A,EA] | [A,CE]2 [A,C] [A,C]3 | [E,E][E,E][E,E] [E,E]2 [E,E] | %13
 [A,EA]2 [A,E] [A,CA]3 | [A,EA][A,E][A,E] [A,E][A,EA][A,EA] | [A,CE]3 [A,CE]3 | %16
 [D,D]>[D,C][D,B,] [E,E]2 [E,DE] | [A,CE]6 |] %18
V:3
 x6 | x6 | x6 | x6 | x6 | x6 | x6 | x6 | x6 | x6 | z z/ A/A z _c=c | z2 E z2 A | GGG GA[GB] | %13
 c3 z3 | z AA A_c=c | x6 | x6 | x6 |] %18
V:4
 x6 | x6 | x6 | x6 | x6 | x6 | x6 | x6 | x6 | x6 | z3 .A3 | z3 E3 | x6 | x6 | x6 | x6 | x6 | x6 |] %18

